fonts/sulive/uni004c.medi.svg

<svg width="500" height="650" xmlns="http://www.w3.org/2000/svg">
    <path
        d="M 150,100 C 80.964406,100 25,155.96441 25,225 v 75 H 0 c -13.807119,0 -25,11.19288 -25,25 0,13.80712 11.192881,25 25,25 h 25 v 75 c 0,69.03559 55.964406,125 125,125 h 200 c 69.03559,0 125,-55.96441 125,-125 v -75 h 25 c 13.80712,0 25,-11.19288 25,-25 0,-13.80712 -11.19288,-25 -25,-25 H 475 V 225 C 475,155.96441 419.03559,100 350,100 Z m 0,50 h 200 c 41.42136,0 75,33.57864 75,75 0,41.42136 -33.57864,75 -75,75 H 150 c -41.42136,0 -75,-33.57864 -75,-75 0,-41.42136 33.57864,-75 75,-75 z M 75,350 h 350 v 75 c 0,41.42136 -33.57864,75 -75,75 H 150 c -41.42136,0 -75,-33.57864 -75,-75 z" />
    <path
        d="M 50 100 A 25 25 0 0 0 43.529297 100.85156 A 25 25 0 0 0 32.322266 107.32227 A 25 25 0 0 0 32.322266 142.67773 L 432.32227 542.67773 A 25 25 0 0 0 467.67773 542.67773 A 25 25 0 0 0 467.67773 507.32227 L 67.677734 107.32227 A 25 25 0 0 0 50 100 z " />
</svg>

<svg width="500" height="650" xmlns="http://www.w3.org/2000/svg">
    <path d="M 150 100 A 125 125 0 0 0 25 225 L 25 300 L 0 300 A 25 25 0 0 0 -25 325 A 25 25 0 0 0 0 350 L 25 350 L 25 425 A 125 125 0 0 0 150 550 L 350 550 A 125 125 0 0 0 475 425 L 475 350 L 500 350 A 25 25 0 0 0 503.26367 349.78516 A 25 25 0 0 0 525 325 A 25 25 0 0 0 500 300 L 475 300 L 475 225 A 125 125 0 0 0 473.92969 208.68359 A 125 125 0 0 0 470.74023 192.64844 A 125 125 0 0 0 470.74023 192.64648 A 125 125 0 0 0 465.48438 177.16406 A 125 125 0 0 0 438.38672 136.61133 A 125 125 0 0 0 350 100 L 150 100 z M 150 150 L 350 150 A 75 75 0 0 1 425 225 A 75 75 0 0 1 350 300 L 150 300 A 75 75 0 0 1 75 225 A 75 75 0 0 1 75.642578 215.21094 A 75 75 0 0 1 150 150 z M 75 350 L 150 350 L 350 350 L 425 350 L 425 425 A 75 75 0 0 1 350 500 L 150 500 A 75 75 0 0 1 75 425 L 75 350 z "/>
    <path d="M 50 100 A 25 25 0 0 0 43.529297 100.85156 A 25 25 0 0 0 32.322266 107.32227 A 25 25 0 0 0 32.322266 142.67773 L 432.32227 542.67773 A 25 25 0 0 0 467.67773 542.67773 A 25 25 0 0 0 467.67773 507.32227 L 67.677734 107.32227 A 25 25 0 0 0 50 100 z "/>
</svg>
